!!!!SEGMENT: pl-wn--mus-iii-105-719-1--001_zelenski-wladyslaw--25-preludyi-op-38-1-moderato.krn
!!!cenid: 18xx:3734
!!!COM: Żeleński, Władysław
!!!COM-rismid: pe41024455
!!!CDT:
!!!CNT:
!!!GTL: 25 preludyi op. 38
!!!OTL: 1. Moderato
!!!PDT: 1881
!!!AGN:
!!!SMS-siglum: PL-Wn
!!!SMS-shelfmark: Mus.III.105.719/1
!!!SMS-shelfwork: 001 G
!!!SMS-variant:
!!!SMS-altvar:
!!!NIFC-rismid:
!!!URL-scan: https://polona.pl/item/25-preludyi-2-3-i-4-glosowych-na-organ-lub-fisharmonike-do-uzytku-organistow-i,ODE1NjEwMzc/2/#info:metadata
!!!ONB-nifc:
!!!AIN: 2 organ
!!!key: C
**kern	**fing	**dynam	**kern	**fing	**dynam
*part2	*part2	*part2	*part1	*part1	*part1
*staff2	*	*	*staff1	*	*
*I"Organ	*	*	*I"Organ	*	*
*I'org	*	*	*I'org	*	*
*ICklav	*	*	*ICklav	*	*
*Iorgan	*	*	*Iorgan	*	*
*clefF4	*	*	*clefG2	*	*
*k[]	*	*	*k[]	*	*
*C:	*	*	*C:	*	*
*M4/4	*	*	*M4/4	*	*
*met(c)	*	*	*met(c)	*	*
=1	=1	=1	=1	=1	=1
(4c\	.	.	8r	.	f
.	.	.	(8e/L	2	.
[4C/	.	.	8a/	5	.
.	.	.	8e/J	2	.
8C/L]	.	.	4d/	1	.
8BB/	.	.	.	.	.
8AA/	.	.	[4f/	3	.
8BB/J	.	.	.	.	.
=2	=2	=2	=2	=2	=2
[2C/	.	.	8f/L]	.	.
.	.	.	8e/	2	.
.	.	.	8f/	1	.
.	.	.	8g/J	.	.
8C\L]	.	.	8a/L	.	.
8D\	.	.	8b/J	.	.
8E\	.	.	[4cc\	.	.
8F#X\J	.	.	.	.	.
=3	=3	=3	=3	=3	=3
[2G\	.	.	8cc\L]	.	.
.	.	.	(8b\)	.	.
.	.	.	8ee\	.	.
.	.	.	8b\J	.	.
8G\L]	.	.	4a/	1	.
8F#X\	.	.	.	.	.
8E\	.	.	[4cc\	5	.
8F#\J	.	.	.	.	.
=4	=4	=4	=4	=4	=4
4D\)	.	.	8cc/L])	.	.
.	.	.	(8f#X/	.	.
([4d\	.	.	8b/	.	.
.	.	.	8f#/J	.	.
8d\L]	.	.	4e/	.	.
8c\	.	.	.	.	.
8B\	.	.	[4g/	4	.
8c\J	.	.	.	.	.
=5	=5	=5	=5	=5	=5
4.A\	.	.	8g/L]	.	.
.	.	.	8e/	2	.
.	.	.	8f#X/	3	.
8B\	.	.	8g/J	1	.
8c\L	.	.	8a/L	.	.
8B\	.	.	8b/J	.	.
8A\	.	.	[4cc\	.	.
8G\J	.	.	.	.	.
=6	=6	=6	=6	=6	=6
8F#X\L	.	.	4cc\]	.	.
8D\J	.	.	.	.	.
[4G\	1	.	4b\	.	.
8G\L]	.	.	4a/	.	.
8Fn\	.	.	.	.	.
8E\	.	.	4g/	.	.
8D\J	.	.	.	.	.
=7	=7	=7	=7	=7	=7
8C\L)	.	.	4cc\)	.	.
(8E\	.	.	.	.	.
8A\	.	.	([4c/	1	.
8E\J	.	.	.	.	.
4D\	.	.	8c/L]	.	.
.	.	.	8B/	2	.
[4F\	.	.	8A/	1	.
.	.	.	8B/J	2	.
=8	=8	=8	=8	=8	=8
8F\L]	.	.	[2c/	.	.
8E\	.	.	.	.	.
8F\	.	.	.	.	.
8G\J	.	.	.	.	.
8A\L	.	.	8c/L]	.	.
8B\J	.	.	8d/	.	.
[4c\	.	.	8e/	.	.
.	.	.	8f#X/J	.	.
!LO:LB:g=original	!	!	!	!	!
=9	=9	=9	=9	=9	=9
8c\L]	.	.	[2g/	.	.
8B\	4	.	.	.	.
8e\	.	.	.	.	.
8B\J	3	.	.	.	.
4A\	.	.	8g/L]	.	.
.	.	.	8f#X/	.	.
[4c\	.	.	8e/	.	.
.	.	.	8f#/J	.	.
=10	=10	=10	=10	=10	=10
8c\L])	.	.	4d/)	.	.
(8F#X\	5	.	.	.	.
8B\	1	.	([4dd\	.	.
8F#\J	3	.	.	.	.
4E\	.	.	8dd\L]	.	.
.	.	.	8cc\	.	.
[4G\	.	.	8b\	.	.
.	.	.	8cc\J)	.	.
=11	=11	=11	=11	=11	=11
8G\L]	.	.	(4.a/	.	.
8E\	.	.	.	.	.
8F#X\	.	.	.	.	.
8G\J	.	.	8b\	.	.
8A\L	1	.	8cc/L	.	.
8B\J	3	.	8b/	.	.
[4c\	2	.	8a/	.	.
.	.	.	8g/J	.	.
=12	=12	=12	=12	=12	=12
4c\]	.	.	8f#X/L	.	.
.	.	.	8d/J	.	.
4B\	1	.	[4g/	.	.
4A\	.	.	8g/L]	.	.
.	.	.	8fn/	.	.
[4G\	.	.	8e/	.	.
.	.	.	8d/J	.	.
=13	=13	=13	=13	=13	=13
8G\L]	.	.	[2b-X\)	.	.
8F\	1	.	.	.	.
8E\	.	.	.	.	.
8D\J	.	.	.	.	.
[>2C#X/	.	.	8b-\L]	.	.
.	.	.	(8a\	2	<
.	.	.	8ee\	5	.
.	.	.	8g\J	1	.
=14	=14	=14	=14	=14	=14
!	!	!	!LO:TX:i:b:t=poco a poco	!	!
8C#\L]	.	.	[2f/	.	.
8E\	.	.	.	.	.
8D\	.	.	.	.	.
8C#X\J	.	.	.	.	.
8D\)	.	.	8f/L]	.	.
8r	.	.	8g/	.	.
4r	.	.	8a/	.	.
.	.	.	8b/J	.	.
=15	=15	=15	=15	=15	=15
8r	.	.	[2cc\	.	.
(8g\L	.	.	.	.	.
8f#X\	.	.	.	.	.
8e\J	.	.	.	.	.
[2d#X\	.	.	8cc\L])	.	.
.	.	.	(8b\	2	.
.	.	.	8ff#X\	5	.
.	.	.	8a\J	1	.
=16	=16	=16	=16	=16	=16
8d#\L]	.	.	[2g/	.	.
8f#X\	.	.	.	.	.
8e\	.	.	.	.	.
8d#X\J	.	.	.	.	.
8e\)	.	.	8g/L]	.	>
8r	.	.	8a/	.	.
4r	.	.	8b/	.	.
.	.	.	8cc#X/J	.	]]
!LO:LB:g=original	!	!	!	!	!
=17	=17	=17	=17	=17	=17
!	!	!	!LO:TX:b:i:t=dolce	!	!
8r	.	.	4dd\)	5	p
(8B\L	4	.	.	.	.
8e\	.	.	([4g/	2	.
8B\J	3	.	.	.	.
4c\	1	.	8g/L]	.	.
.	.	.	8e/	1	.
8A\L	2	.	8f#X/	2	.
8F#X\J)	4	.	8a/J	4	.
=18	=18	=18	=18	=18	=18
8r	.	.	4b/)	.	.
(8G\L	.	.	.	.	.
8c\	.	.	([4e/	1	.
8G\J	.	.	.	.	.
4A\	.	.	8e/L]	.	.
.	.	.	8c#X/	2	.
8F#X\L	.	.	8d#X/	3	.
8D#X\J)	.	.	8f#X/J	4	.
=19	=19	=19	=19	=19	=19
8r	.	.	4g/)	.	.
(8E\L	4	.	.	.	.
8A\	.	.	4c/	.	.
8E\J	3	.	.	.	.
[2F\	2	.	8r	.	.
.	.	.	(8a\L	2	.
.	.	.	8dd\	.	.
.	.	.	8b\J	.	.
=20	=20	=20	=20	=20	=20
!	!	!	!	!	!LO:HP:t=cresc. sempre
8F\L]	.	.	[2cc\	.	<
8E\	4	.	.	.	.
8F\	.	.	.	.	.
8G\J	.	.	.	.	.
8A\L	1	.	8cc\L]	.	.
8G\	4	.	8b\	2	.
8A\	.	.	8cc\	.	.
8B\J	.	.	8dd\J	.	.
=21	=21	=21	=21	=21	=21
4c\)	.	.	8ee\L	5	.
.	.	.	8dd\	2	.
!LO:TX:b:i:t=sempre legato	!	!	!	!	!
8C/L	.	.	8ee\	.	.
8D/J	.	.	8ff\J	.	.
8E\L	.	.	4gg\)	.	.
8D\	.	.	.	.	.
8E\	.	.	8g/L	1	.
8F\J	.	.	8a/J	2	.
=22	=22	=22	=22	=22	=22
!	!	!	!LO:TX:a:i:t=sempre legato	!	!
4.G\	1	.	8b\L	3	.
.	.	.	8a\	2	.
.	.	.	8b\	3	.
8A\	3	.	8cc\J	1	.
8B\L	2	.	4.dd\	.	.
8A\	3	.	.	.	.
8G\	4	.	.	.	.
8B-X\J	2	.	8ee\	.	.
=23	=23	=23	=23	=23	=23
4A\	3	.	8ff\L	4	.
.	.	.	8ee\	3	.
4Bn\	2	.	8dd\	2	.
.	.	.	8ff\J	4	.
8c\L	1	.	4ee\	2	.
8e\	2	.	.	.	.
8d\	3	.	4ff#X\	3	.
8c\J	1	.	.	.	.
=24	=24	=24	=24	=24	=24
4B\	.	.	8gg\L	.	.
.	.	.	8aa\	.	.
8A\L	.	.	8gg\	.	.
8B\J	.	.	8ffn\J	.	.
8c\L	.	.	4ee\	.	.
8G\J	4	.	.	.	.
4B-X\	2	.	8dd\L	1	.
.	.	.	8ee\J	4	.
=25	=25	=25	=25	=25	=25
4.A\	1	.	8ff\L	5	.
.	.	.	8cc\J	2	.
.	.	.	4ee\	4	.
8G\	.	.	.	.	.
8F#X\L	3	.	4dd\	.	.
8D\J	5	.	.	.	.
[4Fn\	1	.	8a/L	.	.
.	.	.	8b/J	.	.
=26	=26	=26	=26	=26	=26
8F\L]	.	.	4cc\	.	.
8E\	.	.	.	.	.
8D\	.	.	4r	.	.
8E\J	.	.	.	.	.
4C/	.	.	8r	.	.
.	.	.	(8e/L	2	.
[4C#X/	.	.	8a/	.	.
.	.	.	8e/J	.	.
=27	=27	=27	=27	=27	=27
8C#\L]	.	.	[2f/	.	.
8E\	1	.	.	.	.
8D\	2	.	.	.	.
8C#X\J	3	.	.	.	.
4D\	1	.	(8f/L])	.	.
.	.	.	8f/	.	.
([4D#X\	.	.	8b/	5	.
.	.	.	8f#X/J	2	.
=28	=28	=28	=28	=28	=28
8D#\L]	.	.	4.g/	.	.
8F#X\J	.	.	.	.	.
8E\)	.	.	.	.	.
8r	.	.	8f#X/	.	.
8r	.	.	4e/	.	.
(8G\L	4	.	.	.	.
8c\	.	.	[4ee\	.	.
8G#X\J)	3	.	.	.	.
=29	=29	=29	=29	=29	=29
[2A\	2	.	8ee\L])	.	.
.	.	.	(8cc\	1	.
.	.	.	8ff\	4	.
.	.	.	8ee\J	3	.
8A\L]	.	.	[2ff\	.	.
(8A\	4	.	.	.	.
8d\	.	.	.	.	.
8A#X\J)	3	.	.	.	.
=30	=30	=30	=30	=30	=30
[2B\	2	.	8ff\L])	.	.
.	.	.	(8dd\	2	.
.	.	.	8gg\	.	.
.	.	.	8ff#X\J	.	.
8B\L]	.	.	4.gg\	.	.
(8B\	1	.	.	.	.
8e\	.	.	.	.	.
8B\J	3	.	8ffn\	.	.
=31	=31	=31	=31	=31	=31
8c\L)	2	.	4ee\	.	.
(8G\	5	.	.	.	.
!	!	!	!LO:TX:b:i:t=poco riten.	!	!
8c\	2	.	8dd\L	2	.
8B-X\J	3	.	8ee\J	3	.
8A\L	1	.	4ff\	5	>
8D\	5	.	.	.	.
8G\	1	.	8a/L	.	.
8F\J	2	.	8b/J	.	.
=32	=32	=32	=32	=32	=32
8E\L	3	.	[2cc\	.	.
8F\	1	.	.	.	.
8E\	.	.	.	.	.
8D\J	.	.	.	.	.
8C/)	.	.	8cc\])	.	]
8r	.	.	8r	.	.
4r	.	.	4r	.	.
==	==	==	==	==	==
*-	*-	*-	*-	*-	*-
!!!system-decoration: {(s1,s2)}
!!!RDF**kern: > = above
!!!RDF**kern: < = below
!!!ENC: Andrzej Gręziak
!!!END: 2022-03-12
!!!ENC: Jan Barakat
!!!END: 2022-03-15
